packages/hms_room_kit/lib/src/assets/icons/pin.svg

<svg width="20" height="20" viewBox="0 0 20 20" fill="none" xmlns="http://www.w3.org/2000/svg">
<g id="Pin">
<path id="Vector" d="M9.95833 13.9583V17.4999M5 13.9583H14.9167V12.7116C14.9165 12.448 14.8429 12.1897 14.704 11.9657C14.5651 11.7418 14.3664 11.561 14.1304 11.4437L12.8696 10.8062C12.6336 10.6889 12.4349 10.5081 12.296 10.2841C12.1571 10.0601 12.0835 9.80181 12.0833 9.53825V6.16659H12.7917C13.1674 6.16659 13.5277 6.01733 13.7934 5.75165C14.0591 5.48598 14.2083 5.12564 14.2083 4.74992C14.2083 4.3742 14.0591 4.01386 13.7934 3.74818C13.5277 3.48251 13.1674 3.33325 12.7917 3.33325H7.125C6.74928 3.33325 6.38894 3.48251 6.12327 3.74818C5.85759 4.01386 5.70833 4.3742 5.70833 4.74992C5.70833 5.12564 5.85759 5.48598 6.12327 5.75165C6.38894 6.01733 6.74928 6.16659 7.125 6.16659H7.83333V9.53825C7.83319 9.80181 7.75953 10.0601 7.62064 10.2841C7.48174 10.5081 7.28311 10.6889 7.04708 10.8062L5.78625 11.4437C5.55022 11.561 5.3516 11.7418 5.2127 11.9657C5.0738 12.1897 5.00014 12.448 5 12.7116V13.9583Z" stroke="#EFF0FA" stroke-width="1.5" stroke-linecap="round" stroke-linejoin="round"/>
</g>
</svg>

<svg xmlns="http://www.w3.org/2000/svg" width="20" height="20" fill="none" viewBox="0 0 20 20"><path stroke="#EFF0FA" stroke-linecap="round" stroke-linejoin="round" stroke-width="1.5" d="M9.958 13.958V17.5M5 13.958h9.917v-1.246a1.417 1.417 0 0 0-.787-1.268l-1.26-.638a1.417 1.417 0 0 1-.787-1.268V6.167h.709a1.417 1.417 0 0 0 0-2.834H7.125a1.417 1.417 0 0 0 0 2.834h.708v3.371a1.417 1.417 0 0 1-.786 1.268l-1.26.638A1.417 1.417 0 0 0 5 12.712v1.246Z"/></svg>
